!!!COM: Bartok, Bela
!!!OTL: Bulgarian Rhythm
!!!ONM: 113
!!!OPR: Mikrokosmos, Vol. IV
!! Boosey & Hawkes Ltd. (London) 1955, copyright 1940 pp.32-33
!! NOTE: The repeat between bars 4 and 23 is not encoded.
**kern	**kern
*M7/8	*M7/8
=1	=1
8B-'	4r
8B-'	.
8G#'	4r
8G#'	.
8B-'	4.r
{8B-	.
8G#}	.
=2	=2
8B-'	4r
8B-'	.
8G#'	4r
8G#'	.
8B-'	4.r
{8B-	.
8G#}	.
=3	=3
8B-'	4r
8B-'	.
8G#'	4r
8G#'	.
8B-'	4.r
{8B-	.
8G#}	.
=4	=4
8A	4r
8D	.
8G#	{4e
8D	.
8A	4a
8D	.
8G#	8b
=5	=5
8A	4a'}
8D	.
8G#	{4dd
8D	.
8A	4a
8D	.
8G#	8e
=6	=6
8A	4f'}
8D	.
8G#	[4d
8D	.
8A	4.d_
8D	.
8G#	.
=7	=7
8A	2d_
8D	.
8G#	.
8D	.
8A	4.d_
8D	.
8G#	.
=8	=8
8A	2d_
8D	.
8G#	.
8D	.
8A	8d]
8D	8r
8G#	8r
=9	=9
8A	4a'
8D	.
8G#	{4ee
8D	.
8A	4dd#
8D	.
8G#	8ee
=10	=10
8A	4ff'}
8D	.
8G#	{4ee
8D	.
8A	4cc#
8D	.
8G#	8gn
=11	=11
8A	4a'}
8D	.
8G#	[4ccn
8D	.
8A	4.cc_
8D	.
8G#	.
=12	=12
8A	2cc_
8D	.
8G#	.
8D	.
8A	4.cc_
8D	.
8G#	.
=13	=13
8A	2cc_
8D	.
8G#	.
8D	.
8A	8cc]
8D	8r
8G#	8r
=14	=14
8A	4gg'
8D	.
8G#	{4ff
8D	.
8A	4ee
8D	.
8G#	8ff
=15	=15
8A	4ee'}
8D	.
8G#	{4b
8D	.
8A	4cc#
8D	.
8G#	8b-
=16	=16
8A	4ccn'}
8D	.
8G#	[4gn
8D	.
8A	4.g_
8D	.
8G#	.
=17	=17
8A	2g_
8D	.
8G#	.
8D	.
8A	4.g_
8D	.
8G#	.
=18	=18
8A	2g_
8D	.
8G#	.
8D	.
8A	8g]
8D	8r
8G#	8r
=19	=19
8A	4f'
8D	.
8G#	{4e
8D	.
8A	4a
8D	.
8G#	8b
=20	=20
8A	4cc#'}
8D	.
8G#	{4b
8D	.
8A	4a
8D	.
8G#	8e
=21	=21
8A	4f'}
8D	.
8G#	[4d
8D	.
8A	4.d_
8D	.
8G#	.
=22	=22
8A	2d_
8D	.
8G#	.
8D	.
8A	4.d_
8D	.
8G#	.
=23	=23
8A	2d_
8D	.
8G#	.
8D	.
8A	8d]
8D	8r
8G#	8r
=24	=24
8B-'	4r
8B-'	.
8G#'	4r
8G#'	.
8B-'	4.r
{8B-	.
8G#}	.
=25	=25
8B-'	4r
8B-'	.
8G#'	4r
8G#'	.
8B-'	4.r
{8B-	.
8G#}	.
=26	=26
8B-'	4r
8B-'	.
8G#'	4r
8G#'	.
8B-'	4.r
{8B-	.
8G#}	.
=27	=27
4.c#	4.r
[4A	4r
4.A_	4.r
=28	=28
2A_	2r
4.A_	4.r
=29	=29
2A_	2r
8A]	8r
8r	8r
8r	8r
==	==
*-	*-
